X: 36050
T: Scartaglen, The
R: polka
M: 2/4
K: Gmajor
|:D|G2 GA|Bd de/f/|gB B/A/G/A/|BA AB/A/|
G2 GA|Bd de/f/|gB AB|G2 G:|
|:A|Bd ga/g/|fe e/f/g/e/|dB B/A/G/A/|BA AG/A/|
Bd ga/g/|fe e/f/g/e/|dB AB/A/|G2 G:|
|:B/d/|gf/g/ ag/a/|b2 ba|gf/g/ ag/a/|b2 ba|
gf e/f/g/e/|dB g>e|dB AB/A/|G2 G:|

